X: 20
T:The White Cockade
% Nottingham Music Database
S:Kevin Briggs, via EF
M:4/4
L:1/4
K:G
P:A
G/2A/2|"G"BB BA/2G/2|"G"BB Bg|"G"dB BA/2G/2|"Am"BA "D7"AG/2A/2|
"G"BB "D7"c/2B/2A/2G/2|"G"Bd "Em"gg/2a/2|"G"b/2a/2g/2f/2 "D"a/2g/2f/2e/2|\
"Em"dB "D7"B:|
P:B
B/2c/2|"G"dB gB/2c/2|"G"dd dB/2c/2|"G"dB gf/2g/2|"A7"aA "D7"AG/2A/2|
"G"BB "D7"c/2B/2A/2G/2|"G"Bd "Em"gg/2a/2|"G"b/2a/2g/2f/2 "D"a/2g/2f/2e/2|\
"Em"dB "D7"B:|


